icons/logo-github-16.svg

<svg width="49" height="16" viewBox="0 0 49 16" fill="none" xmlns="http://www.w3.org/2000/svg">
<path d="M5.60628 2.05828C8.40214 2.05828 10.0912 3.25241 10.63 5.26194L8.12547 5.85897C7.81968 4.76684 6.94596 4.16979 5.60628 4.16979C3.61133 4.16979 2.5337 5.4803 2.53369 7.97033C2.53369 10.4604 3.58218 11.8001 5.548 11.8002C7.20387 11.8002 8.24737 10.8694 8.40911 9.26631H5.34415V7.16945H10.9359V8.49458C10.9359 11.9748 8.91181 13.9115 5.50436 13.9115C2.12603 13.9115 0 11.5962 0 7.97033C2.18742e-05 4.34448 2.16972 2.05828 5.60628 2.05828Z" fill="#010409"/>
<path d="M34.1593 10.4314C34.1594 11.4361 34.6108 11.9895 35.47 11.9895C36.4602 11.9895 37.2174 11.072 37.2174 9.81971V5.50942H39.5326V13.6932H37.2174V12.3098C36.7806 13.198 35.7321 13.8387 34.6108 13.8387C32.8197 13.8387 31.8441 12.8486 31.8441 11.0429V5.50942H34.1593V10.4314Z" fill="#010409"/>
<path fill-rule="evenodd" clip-rule="evenodd" d="M43.0552 7.00925C43.5265 6.01906 44.5895 5.32007 45.6618 5.32007C47.895 5.32008 49.0745 6.86369 48.9964 9.58673C49.0745 12.2806 47.8514 13.8387 45.6618 13.8387C44.5458 13.8387 43.5265 13.198 43.0407 12.2806V13.6932H40.7398V2.27677H43.0552V7.00925ZM44.8463 7.25688C43.8905 7.25691 43.1333 8.18889 43.0552 9.47031V9.60137C43.1333 10.9264 43.8905 11.902 44.8463 11.9021C46.0456 11.9021 46.701 11.0138 46.6229 9.58673C46.701 8.14512 46.0456 7.25688 44.8463 7.25688Z" fill="#010409"/>
<path d="M14.1103 13.6932H11.8096V5.50942H14.1103V13.6932Z" fill="#010409"/>
<path d="M18.7456 5.50942H20.4494V7.43158H18.7456V11.1448C18.7456 11.5963 18.9495 11.771 19.4009 11.771H20.4494V13.6932H18.5709C17.0419 13.6932 16.4449 13.0378 16.4449 11.6544V7.43158H14.9887V5.50942H16.4449V3.87852L18.7456 3.33978V5.50942Z" fill="#010409"/>
<path d="M23.8958 2.27677V6.90733H28.2352V2.27677H30.7108V13.6932H28.2352V9.12076H23.8958V13.6932H21.4204V2.27677H23.8958Z" fill="#010409"/>
<path d="M12.96 2C13.7318 2.00002 14.3288 2.59716 14.3288 3.36892C14.3288 4.14065 13.7318 4.73766 12.96 4.73768C12.1883 4.73768 11.5911 4.14067 11.5911 3.36892C11.5911 2.59714 12.1882 2 12.96 2Z" fill="#010409"/>
</svg>

<svg xmlns="http://www.w3.org/2000/svg" width="49" height="16" viewBox="0 0 49 16"><path d="M5.606 2.058c2.796 0 4.485 1.194 5.024 3.204l-2.505.597C7.82 4.767 6.946 4.17 5.606 4.17c-1.995 0-3.072 1.31-3.072 3.8s1.048 3.83 3.014 3.83c1.656 0 2.699-.931 2.861-2.534H5.344V7.169h5.592v1.326c0 3.48-2.024 5.417-5.432 5.417C2.126 13.912 0 11.596 0 7.97s2.17-5.912 5.606-5.912m28.553 8.373c0 1.005.452 1.558 1.311 1.558.99 0 1.747-.917 1.747-2.169V5.509h2.316v8.184h-2.316V12.31c-.436.888-1.485 1.529-2.606 1.529-1.791 0-2.767-.99-2.767-2.796V5.509h2.315zm8.896-3.422c.472-.99 1.535-1.689 2.607-1.689 2.233 0 3.413 1.544 3.334 4.267.079 2.694-1.145 4.252-3.334 4.252-1.116 0-2.135-.641-2.621-1.558v1.412H40.74V2.277h2.315Zm1.791.248c-.956 0-1.713.932-1.791 2.213v.131c.078 1.325.835 2.301 1.791 2.301 1.2 0 1.855-.888 1.777-2.315.078-1.442-.577-2.33-1.777-2.33M14.11 13.693h-2.3V5.509h2.3zm4.636-8.184h1.703v1.923h-1.703v3.713c0 .451.204.626.655.626h1.048v1.922h-1.878c-1.529 0-2.126-.655-2.126-2.039V7.432h-1.456V5.509h1.456v-1.63l2.301-.539zm5.15-3.232v4.63h4.339v-4.63h2.476v11.416h-2.476V9.121h-4.339v4.572H21.42V2.277zM12.96 2a1.35 1.35 0 0 1 1.369 1.369 1.35 1.35 0 0 1-1.369 1.369 1.35 1.35 0 0 1-1.369-1.369A1.35 1.35 0 0 1 12.96 2"/></svg>
